symbols/web/shop_two/materialsymbolsrounded/shop_two_gradN25_24px.svg

<svg xmlns="http://www.w3.org/2000/svg" height="24" width="24"><path d="M11.9 14.1q0 .3.25.425t.5-.025l3.9-2.5q.2-.125.2-.387 0-.263-.2-.413l-3.9-2.475q-.25-.15-.5-.025t-.25.4Zm-8.7 7.675q-.775 0-1.325-.55-.55-.55-.55-1.325v-9.825q0-.375.275-.65t.65-.275q.4 0 .675.275t.275.65V19.9h15.325q.4 0 .675.275t.275.65q0 .4-.275.675t-.675.275Zm3.75-3.75q-.775 0-1.325-.55-.55-.55-.55-1.325V7.075q0-.775.55-1.325.55-.55 1.325-.55h3.125V3.25q0-.775.55-1.325.55-.55 1.325-.55h3.875q.75 0 1.312.55.563.55.563 1.325V5.2h3.125q.75 0 1.313.55.562.55.562 1.325v9.075q0 .775-.562 1.325-.563.55-1.313.55Zm5-12.825h3.875V3.25H11.95Zm-5 10.95h13.875V7.075H6.95v9.075Zm0 0V7.075v9.075Z"/></svg>

<svg xmlns="http://www.w3.org/2000/svg" height="24" width="24"><path d="M11.9 14.1Q11.9 14.4 12.15 14.525Q12.4 14.65 12.65 14.5L16.55 12Q16.75 11.875 16.75 11.613Q16.75 11.35 16.55 11.2L12.65 8.725Q12.4 8.575 12.15 8.7Q11.9 8.825 11.9 9.1ZM3.2 21.775Q2.425 21.775 1.875 21.225Q1.325 20.675 1.325 19.9V10.075Q1.325 9.7 1.6 9.425Q1.875 9.15 2.25 9.15Q2.65 9.15 2.925 9.425Q3.2 9.7 3.2 10.075V19.9Q3.2 19.9 3.2 19.9Q3.2 19.9 3.2 19.9H18.525Q18.925 19.9 19.2 20.175Q19.475 20.45 19.475 20.825Q19.475 21.225 19.2 21.5Q18.925 21.775 18.525 21.775ZM6.95 18.025Q6.175 18.025 5.625 17.475Q5.075 16.925 5.075 16.15V7.075Q5.075 6.3 5.625 5.75Q6.175 5.2 6.95 5.2H10.075V3.25Q10.075 2.475 10.625 1.925Q11.175 1.375 11.95 1.375H15.825Q16.575 1.375 17.137 1.925Q17.7 2.475 17.7 3.25V5.2H20.825Q21.575 5.2 22.138 5.75Q22.7 6.3 22.7 7.075V16.15Q22.7 16.925 22.138 17.475Q21.575 18.025 20.825 18.025ZM11.95 5.2H15.825V3.25Q15.825 3.25 15.825 3.25Q15.825 3.25 15.825 3.25H11.95Q11.95 3.25 11.95 3.25Q11.95 3.25 11.95 3.25ZM6.95 16.15H20.825Q20.825 16.15 20.825 16.15Q20.825 16.15 20.825 16.15V7.075Q20.825 7.075 20.825 7.075Q20.825 7.075 20.825 7.075H6.95Q6.95 7.075 6.95 7.075Q6.95 7.075 6.95 7.075V16.15Q6.95 16.15 6.95 16.15Q6.95 16.15 6.95 16.15ZM6.95 16.15Q6.95 16.15 6.95 16.15Q6.95 16.15 6.95 16.15V7.075Q6.95 7.075 6.95 7.075Q6.95 7.075 6.95 7.075Q6.95 7.075 6.95 7.075Q6.95 7.075 6.95 7.075V16.15Q6.95 16.15 6.95 16.15Q6.95 16.15 6.95 16.15Z"/></svg>
